chrome/icons/info-badge.svg

<svg height="16" viewBox="416 32 192 928" width="16" xmlns="http://www.w3.org/2000/svg" xmlns:xlink="http://www.w3.org/1999/xlink">
  <path d="M416,128C416,115 418.5,102.667 423.5,91C428.5,79.3334 435.417,69.0834 444.25,60.25C453.083,51.4167 463.333,44.5 475,39.5C486.667,34.5 499,32 512,32C525,32 537.333,34.5 549,39.5C560.667,44.5 570.917,51.4167 579.75,60.25C588.583,69.0834 595.5,79.3334 600.5,91C605.5,102.667 608,115 608,128C608,141 605.5,153.333 600.5,165C595.5,176.667 588.583,186.917 579.75,195.75C570.917,204.583 560.667,211.5 549,216.5C537.333,221.5 525,224 512,224C499,224 486.667,221.5 475,216.5C463.333,211.5 453.083,204.583 444.25,195.75C435.417,186.917 428.5,176.667 423.5,165C418.5,153.333 416,141 416,128ZM448,896L448,384C448,375 449.667,366.667 453,359C456.333,351.333 460.917,344.583 466.75,338.75C472.583,332.917 479.333,328.333 487,325C494.667,321.667 503,320 512,320C520.667,320 528.917,321.667 536.75,325C544.583,328.333 551.417,332.917 557.25,338.75C563.083,344.583 567.667,351.417 571,359.25C574.333,367.083 576,375.333 576,384L576,896C576,905 574.333,913.333 571,921C567.667,928.667 563.083,935.417 557.25,941.25C551.417,947.083 544.667,951.667 537,955C529.333,958.333 521,960 512,960C503,960 494.583,958.333 486.75,955C478.917,951.667 472.167,947.167 466.5,941.5C460.833,935.833 456.333,929.083 453,921.25C449.667,913.417 448,905 448,896Z" fill="context-fill" fill-opacity="context-fill-opacity">
  </path>
</svg>

<svg xmlns="http://www.w3.org/2000/svg" width="16" height="16" viewBox="416 32 192 928"><path fill="context-fill" fill-opacity="context-fill-opacity" d="M416 128q0-19.5 7.5-37t20.75-30.75T475 39.5t37-7.5 37 7.5 30.75 20.75T600.5 91t7.5 37-7.5 37-20.75 30.75T549 216.5t-37 7.5-37-7.5-30.75-20.75T423.5 165t-7.5-37m32 768V384q0-13.5 5-25t13.75-20.25T487 325t25-5q13 0 24.75 5t20.5 13.75 13.75 20.5 5 24.75v512q0 13.5-5 25t-13.75 20.25T537 955t-25 5-25.25-5-20.25-13.5-13.5-20.25-5-25.25"/></svg>
